icons/modus-solid/calendar-week.svg

<svg xmlns="http://www.w3.org/2000/svg" width="24" height="24" fill="currentColor" viewBox="0 0 24 24">
  <path d="m20,3h-2c0-.55-.45-1-1-1s-1,.45-1,1h-8c0-.55-.45-1-1-1s-1,.45-1,1h-2c-1.1,0-2,.9-2,2v15c0,1.1.9,2,2,2h16c1.1,0,2-.9,2-2V5c0-1.1-.9-2-2-2Zm-11,11h-3v-3h3v3Zm4.5,0h-3v-3h3v3Zm4.5,0h-3v-3h3v3Zm2-6.71c0,.39-.32.71-.71.71H4.71c-.39,0-.71-.32-.71-.71v-1.59c0-.39.32-.71.71-.71h1.29v1.01c0,.55.45,1,1,1s1-.45,1-1v-1h0s8-.01,8-.01h0v1.01c0,.55.45,1,1,1s1-.45,1-1v-1h0s1.29-.01,1.29-.01c.39,0,.71.32.71.71v1.59Z"/>
</svg>

<svg xmlns="http://www.w3.org/2000/svg" width="24" height="24" fill="currentColor" viewBox="0 0 24 24">
  <path d="M20 3h-2c0-.55-.45-1-1-1s-1 .45-1 1H8c0-.55-.45-1-1-1s-1 .45-1 1H4c-1.1 0-2 .9-2 2v15c0 1.1.9 2 2 2h16c1.1 0 2-.9 2-2V5c0-1.1-.9-2-2-2M9 14H6v-3h3zm4.5 0h-3v-3h3zm4.5 0h-3v-3h3zm2-6.71c0 .39-.32.71-.71.71H4.71C4.32 8 4 7.68 4 7.29V5.7c0-.39.32-.71.71-.71H6V6c0 .55.45 1 1 1s1-.45 1-1V5l8-.01V6c0 .55.45 1 1 1s1-.45 1-1V5l1.29-.01c.39 0 .71.32.71.71z"/>
</svg>
